X: 73
T:Paddy Gavin's
R:Jig
S:a Mick Moloney album
Z:Added by alf.warnock@rogers.com
M:6/8
L:1/8
K:D
F|GEG BGB|e2d cAG|FDF AFA|d2d DFA|
GEG BGB|G2E EBc|dcd DFA|GAF E2:|
D|EGB e2f|gfe fed|DFA d2e|faf fed|
EGB e2fgfe fed|BdB DFA|GEF E2:|

